Newaita-dark/mimetypes/24/virtualbox-hdd.svg

<?xml version="1.0" encoding="UTF-8"?>
<svg xmlns="http://www.w3.org/2000/svg" xmlns:xlink="http://www.w3.org/1999/xlink" width="24pt" height="24pt" viewBox="0 0 24 24" version="1.1">
<defs>
<linearGradient id="linear0" gradientUnits="userSpaceOnUse" x1="254" y1="233.5" x2="254" y2="254.666672" gradientTransform="matrix(0.0468795,0,0,0.0468795,-0.0000028613,10.079089)">
<stop offset="0" style="stop-color:rgb(0%,0%,0%);stop-opacity:0.27451;"/>
<stop offset="1" style="stop-color:rgb(0%,0%,0%);stop-opacity:0;"/>
</linearGradient>
<radialGradient id="radial0" gradientUnits="userSpaceOnUse" cx="450.908936" cy="189.579361" fx="450.908936" fy="189.579361" r="21.166656" gradientTransform="matrix(0.000000130628,-0.0585994,-0.105479,-0.0000000761539,39.842197,47.696499)">
<stop offset="0" style="stop-color:rgb(0%,0%,0%);stop-opacity:0.313725;"/>
<stop offset="0.222222" style="stop-color:rgb(0%,0%,0%);stop-opacity:0.27451;"/>
<stop offset="1" style="stop-color:rgb(0%,0%,0%);stop-opacity:0;"/>
</radialGradient>
<radialGradient id="radial1" gradientUnits="userSpaceOnUse" cx="450.908936" cy="189.579361" fx="450.908936" fy="189.579361" r="21.166656" gradientTransform="matrix(-0.000000130628,0.0585994,0.105479,0.0000000761539,-15.90339,-5.645609)">
<stop offset="0" style="stop-color:rgb(0%,0%,0%);stop-opacity:0.313725;"/>
<stop offset="0.222222" style="stop-color:rgb(0%,0%,0%);stop-opacity:0.27451;"/>
<stop offset="1" style="stop-color:rgb(0%,0%,0%);stop-opacity:0;"/>
</radialGradient>
<radialGradient id="radial2" gradientUnits="userSpaceOnUse" cx="450.908936" cy="189.579361" fx="450.908936" fy="189.579361" r="21.166656" gradientTransform="matrix(-0.000000130628,-0.0585994,0.105479,-0.0000000761539,-15.90339,47.696499)">
<stop offset="0" style="stop-color:rgb(0%,0%,0%);stop-opacity:0.313725;"/>
<stop offset="0.222222" style="stop-color:rgb(0%,0%,0%);stop-opacity:0.27451;"/>
<stop offset="1" style="stop-color:rgb(0%,0%,0%);stop-opacity:0;"/>
</radialGradient>
<radialGradient id="radial3" gradientUnits="userSpaceOnUse" cx="450.908936" cy="189.579361" fx="450.908936" fy="189.579361" r="21.166656" gradientTransform="matrix(0.000000130628,0.0585994,-0.105479,0.0000000761539,39.842196,-5.64561)">
<stop offset="0" style="stop-color:rgb(0%,0%,0%);stop-opacity:0.313725;"/>
<stop offset="0.222222" style="stop-color:rgb(0%,0%,0%);stop-opacity:0.27451;"/>
<stop offset="1" style="stop-color:rgb(0%,0%,0%);stop-opacity:0;"/>
</radialGradient>
<linearGradient id="linear1" gradientUnits="userSpaceOnUse" x1="254" y1="-168.666656" x2="254" y2="233.5" gradientTransform="matrix(0.0468795,0,0,0.0468795,0,10.079087)">
<stop offset="0" style="stop-color:rgb(70.196078%,61.568627%,85.882353%);stop-opacity:1;"/>
<stop offset="1" style="stop-color:rgb(58.431373%,45.882353%,80.392157%);stop-opacity:1;"/>
</linearGradient>
<linearGradient id="linear2" gradientUnits="userSpaceOnUse" x1="253.130798" y1="-129.433121" x2="253.130798" y2="272.733551" gradientTransform="matrix(3.779528,0,0,3.779528,3.285154,664.314209)">
<stop offset="0" style="stop-color:rgb(73.72549%,66.666667%,64.313725%);stop-opacity:1;"/>
<stop offset="1" style="stop-color:rgb(84.313725%,80%,78.431373%);stop-opacity:1;"/>
</linearGradient>
</defs>
<g id="surface1">
<path style=" stroke:none;fill-rule:nonzero;fill:rgb(0%,0%,0%);fill-opacity:0.196078;" d="M 2.976562 21.027344 C 2.425781 21.027344 1.984375 20.582031 1.984375 20.03125 L 1.984375 19.910156 C 1.984375 20.457031 2.425781 20.902344 2.976562 20.902344 L 20.839844 20.902344 C 21.386719 20.902344 21.832031 20.457031 21.832031 19.910156 L 21.832031 20.03125 C 21.832031 20.582031 21.386719 21.027344 20.839844 21.027344 Z M 2.976562 21.027344 "/>
<path style=" stroke:none;fill-rule:nonzero;fill:url(#linear0);" d="M 3.84375 21.027344 L 20.09375 21.027344 L 20.09375 22.019531 L 3.84375 22.019531 Z M 3.84375 21.027344 "/>
<path style=" stroke:none;fill-rule:nonzero;fill:url(#radial0);" d="M 20.09375 21.027344 L 22.078125 21.027344 L 22.078125 20.03125 L 20.09375 20.03125 Z M 20.09375 21.027344 "/>
<path style=" stroke:none;fill-rule:nonzero;fill:url(#radial1);" d="M 3.84375 21.027344 L 1.859375 21.027344 L 1.859375 22.019531 L 3.84375 22.019531 Z M 3.84375 21.027344 "/>
<path style=" stroke:none;fill-rule:nonzero;fill:url(#radial2);" d="M 3.84375 21.027344 L 1.859375 21.027344 L 1.859375 20.03125 L 3.84375 20.03125 Z M 3.84375 21.027344 "/>
<path style=" stroke:none;fill-rule:nonzero;fill:url(#radial3);" d="M 20.09375 21.027344 L 22.078125 21.027344 L 22.078125 22.019531 L 20.09375 22.019531 Z M 20.09375 21.027344 "/>
<path style=" stroke:none;fill-rule:nonzero;fill:url(#linear1);" d="M 2.730469 2.171875 L 21.085938 2.171875 C 21.496094 2.171875 21.832031 2.503906 21.832031 2.917969 L 21.832031 20.28125 C 21.832031 20.691406 21.496094 21.027344 21.085938 21.027344 L 2.730469 21.027344 C 2.316406 21.027344 1.984375 20.691406 1.984375 20.28125 L 1.984375 2.917969 C 1.984375 2.503906 2.316406 2.171875 2.730469 2.171875 Z M 2.730469 2.171875 "/>
<path style="fill:none;stroke-width:21.155001;stroke-linecap:butt;stroke-linejoin:miter;stroke:rgb(7.843138%,7.843138%,7.843138%);stroke-opacity:0.235294;stroke-miterlimit:4;" d="M 148.152519 85.304656 L 179.899487 85.304656 L 222.228778 169.963238 L 275.140392 21.810719 L 317.469683 117.051624 L 349.216651 42.975365 L 391.545943 138.21627 L 433.875234 138.21627 " transform="matrix(0.0468795,0,0,0.0468795,0,10.079087)"/>
<path style=" stroke:none;fill-rule:nonzero;fill:rgb(100%,100%,100%);fill-opacity:0.0784314;" d="M 1.984375 18.296875 L 1.984375 20.28125 C 1.984375 20.695312 2.316406 21.027344 2.730469 21.027344 L 21.085938 21.027344 C 21.5 21.027344 21.832031 20.695312 21.832031 20.28125 L 21.832031 18.296875 Z M 1.984375 18.296875 "/>
<path style=" stroke:none;fill-rule:nonzero;fill:rgb(0%,0%,0%);fill-opacity:0.235294;" d="M 9.449219 2.171875 L 9.5 8.613281 L 9.847656 8.964844 L 10.179688 8.632812 L 10.511719 8.964844 L 10.851562 8.621094 L 11.195312 8.964844 L 11.535156 8.621094 L 11.875 8.964844 L 12.21875 8.621094 L 12.558594 8.964844 L 12.898438 8.621094 L 13.242188 8.964844 L 13.582031 8.621094 L 13.921875 8.964844 L 14.273438 8.613281 L 14.273438 2.171875 Z M 9.449219 2.171875 "/>
<path style="fill-rule:nonzero;fill:url(#linear2);stroke-width:11.338583;stroke-linecap:round;stroke-linejoin:round;stroke:rgb(12.941177%,12.941177%,12.941177%);stroke-opacity:1;stroke-miterlimit:4;" d="M 764.336499 175.101398 L 768.430596 666.708021 L 796.459417 695.051773 L 823.228515 668.282674 L 849.997614 695.051773 L 877.396574 667.652813 L 905.110464 695.051773 L 932.509424 667.652813 L 959.908384 695.051773 L 987.622274 667.652813 L 1015.021234 695.051773 L 1042.420194 667.652813 L 1070.134084 695.051773 L 1097.533044 667.652813 L 1124.932004 695.051773 L 1153.275755 666.708021 L 1153.275755 175.101398 Z M 764.336499 175.101398 " transform="matrix(0.0124035,0,0,0.0124035,0,0)"/>
<path style=" stroke:none;fill-rule:nonzero;fill:rgb(100%,100%,100%);fill-opacity:0.392157;" d="M 2.730469 2.171875 C 2.316406 2.171875 1.984375 2.503906 1.984375 2.917969 L 1.984375 3.164062 C 1.984375 2.753906 2.316406 2.421875 2.730469 2.421875 L 21.085938 2.421875 C 21.5 2.421875 21.832031 2.753906 21.832031 3.164062 L 21.832031 2.917969 C 21.832031 2.503906 21.5 2.171875 21.085938 2.171875 Z M 2.730469 2.171875 "/>
<path style=" stroke:none;fill-rule:nonzero;fill:rgb(1.960784%,1.960784%,1.960784%);fill-opacity:0.235294;" d="M 2.730469 21.027344 C 2.316406 21.027344 1.984375 20.695312 1.984375 20.28125 L 1.984375 20.03125 C 1.984375 20.445312 2.316406 20.777344 2.730469 20.777344 L 21.085938 20.777344 C 21.5 20.777344 21.832031 20.445312 21.832031 20.03125 L 21.832031 20.28125 C 21.832031 20.695312 21.5 21.027344 21.085938 21.027344 Z M 2.730469 21.027344 "/>
<path style=" stroke:none;fill-rule:nonzero;fill:rgb(12.941177%,12.941177%,12.941177%);fill-opacity:1;" d="M 2.730469 2.101562 C 2.277344 2.101562 1.914062 2.464844 1.914062 2.917969 L 1.914062 20.28125 C 1.914062 20.730469 2.277344 21.097656 2.730469 21.097656 L 21.085938 21.097656 C 21.535156 21.097656 21.902344 20.730469 21.902344 20.28125 L 21.902344 2.917969 C 21.902344 2.464844 21.535156 2.101562 21.085938 2.101562 Z M 2.730469 2.242188 L 21.085938 2.242188 C 21.460938 2.242188 21.761719 2.542969 21.761719 2.917969 L 21.761719 20.28125 C 21.761719 20.65625 21.460938 20.957031 21.085938 20.957031 L 2.730469 20.957031 C 2.355469 20.957031 2.054688 20.65625 2.054688 20.28125 L 2.054688 2.917969 C 2.054688 2.542969 2.355469 2.242188 2.730469 2.242188 Z M 2.730469 2.242188 "/>
<path style=" stroke:none;fill-rule:nonzero;fill:rgb(0%,0%,0%);fill-opacity:0.235294;" d="M 4.714844 3.164062 L 3.472656 4.652344 L 4.21875 4.652344 L 4.21875 6.636719 L 5.210938 6.636719 L 5.210938 4.652344 L 5.953125 4.652344 Z M 4.714844 3.164062 "/>
<path style=" stroke:none;fill-rule:nonzero;fill:rgb(0%,0%,0%);fill-opacity:0.235294;" d="M 7.195312 3.164062 L 5.953125 4.652344 L 6.699219 4.652344 L 6.699219 6.636719 L 7.691406 6.636719 L 7.691406 4.652344 L 8.433594 4.652344 Z M 7.195312 3.164062 "/>
<path style=" stroke:none;fill-rule:nonzero;fill:rgb(0%,0%,0%);fill-opacity:0.235294;" d="M 3.722656 7.132812 L 8.1875 7.132812 L 8.1875 7.628906 L 3.722656 7.628906 Z M 3.722656 7.132812 "/>
<path style=" stroke:none;fill-rule:nonzero;fill:rgb(25.490198%,25.490198%,25.490198%);fill-opacity:0.0784314;" d="M 2.730469 2.171875 C 2.316406 2.171875 1.984375 2.503906 1.984375 2.917969 L 1.984375 4.15625 L 21.832031 4.15625 L 21.832031 2.917969 C 21.832031 2.503906 21.5 2.171875 21.085938 2.171875 Z M 2.730469 2.171875 "/>
</g>
</svg>

<svg xmlns="http://www.w3.org/2000/svg" width="32" height="32" viewBox="0 0 24 24"><defs><linearGradient id="a" gradientUnits="userSpaceOnUse" x1="254" y1="233.5" x2="254" y2="254.667" gradientTransform="matrix(.04688 0 0 .04688 0 10.08)"><stop offset="0" stop-opacity=".275"/><stop offset="1" stop-opacity="0"/></linearGradient><radialGradient id="b" gradientUnits="userSpaceOnUse" cx="450.909" cy="189.579" fx="450.909" fy="189.579" r="21.167" gradientTransform="matrix(0 -.0586 -.10548 0 39.842 47.696)"><stop offset="0" stop-opacity=".314"/><stop offset=".222" stop-opacity=".275"/><stop offset="1" stop-opacity="0"/></radialGradient><radialGradient id="c" gradientUnits="userSpaceOnUse" cx="450.909" cy="189.579" fx="450.909" fy="189.579" r="21.167" gradientTransform="matrix(0 .0586 .10548 0 -15.903 -5.646)"><stop offset="0" stop-opacity=".314"/><stop offset=".222" stop-opacity=".275"/><stop offset="1" stop-opacity="0"/></radialGradient><radialGradient id="d" gradientUnits="userSpaceOnUse" cx="450.909" cy="189.579" fx="450.909" fy="189.579" r="21.167" gradientTransform="matrix(0 -.0586 .10548 0 -15.903 47.696)"><stop offset="0" stop-opacity=".314"/><stop offset=".222" stop-opacity=".275"/><stop offset="1" stop-opacity="0"/></radialGradient><radialGradient id="e" gradientUnits="userSpaceOnUse" cx="450.909" cy="189.579" fx="450.909" fy="189.579" r="21.167" gradientTransform="matrix(0 .0586 -.10548 0 39.842 -5.646)"><stop offset="0" stop-opacity=".314"/><stop offset=".222" stop-opacity=".275"/><stop offset="1" stop-opacity="0"/></radialGradient><linearGradient id="f" gradientUnits="userSpaceOnUse" x1="254" y1="-168.667" x2="254" y2="233.5" gradientTransform="matrix(.04688 0 0 .04688 0 10.08)"><stop offset="0" stop-color="#b39ddb"/><stop offset="1" stop-color="#9575cd"/></linearGradient><linearGradient id="g" gradientUnits="userSpaceOnUse" x1="253.131" y1="-129.433" x2="253.131" y2="272.734" gradientTransform="matrix(3.77953 0 0 3.77953 3.285 664.314)"><stop offset="0" stop-color="#bcaaa4"/><stop offset="1" stop-color="#d7ccc8"/></linearGradient></defs><path d="M2.977 21.027a.992.992 0 0 1-.993-.996v-.12c0 .546.442.991.993.991H20.84a.994.994 0 0 0 .992-.992v.121c0 .551-.445.996-.992.996zm0 0" fill-opacity=".196"/><path d="M3.844 21.027h16.25v.993H3.844zm0 0" fill="url(#a)"/><path d="M20.094 21.027h1.984v-.996h-1.984zm0 0" fill="url(#b)"/><path d="M3.844 21.027H1.859v.993h1.985zm0 0" fill="url(#c)"/><path d="M3.844 21.027H1.859v-.996h1.985zm0 0" fill="url(#d)"/><path d="M20.094 21.027h1.984v.993h-1.984zm0 0" fill="url(#e)"/><path d="M2.73 2.172h18.356c.41 0 .746.332.746.746v17.363c0 .41-.336.746-.746.746H2.73a.746.746 0 0 1-.746-.746V2.918c0-.414.332-.746.746-.746zm0 0" fill="url(#f)"/><path d="M6.945 14.078h1.489l1.984 3.969 2.48-6.945 1.985 4.464 1.488-3.472 1.984 4.465h1.985" fill="none" stroke-width=".9917464" stroke="#141414" stroke-opacity=".235"/><path d="M1.984 18.297v1.984c0 .414.332.746.746.746h18.356a.744.744 0 0 0 .746-.746v-1.984zm0 0" fill="#fff" fill-opacity=".078"/><path d="M9.45 2.172l.05 6.441.348.352.332-.332.332.332.34-.344.343.344.34-.344.34.344.344-.344.34.344.34-.344.343.344.34-.344.34.344.351-.352V2.172zm0 0" fill-opacity=".235"/><path d="M764.336 175.101l4.095 491.607 28.028 28.344 26.77-26.77 26.769 26.77 27.399-27.4 27.713 27.4 27.4-27.4 27.398 27.4 27.714-27.4 27.4 27.4 27.398-27.4 27.714 27.4 27.399-27.4 27.399 27.4 28.344-28.344V175.101zm0 0" transform="scale(.0124)" fill="url(#g)" stroke-width="11.339" stroke-linecap="round" stroke-linejoin="round" stroke="#212121"/><path d="M2.73 2.172a.744.744 0 0 0-.746.746v.246c0-.41.332-.742.746-.742h18.356c.414 0 .746.332.746.742v-.246a.744.744 0 0 0-.746-.746zm0 0" fill="#fff" fill-opacity=".392"/><path d="M2.73 21.027a.744.744 0 0 1-.746-.746v-.25c0 .414.332.746.746.746h18.356a.744.744 0 0 0 .746-.746v.25a.744.744 0 0 1-.746.746zm0 0" fill="#050505" fill-opacity=".235"/><path d="M2.73 2.102a.814.814 0 0 0-.816.816v17.363c0 .45.363.817.816.817h18.356c.45 0 .816-.368.816-.817V2.918a.816.816 0 0 0-.816-.816zm0 .14h18.356c.375 0 .676.301.676.676v17.363c0 .375-.301.676-.676.676H2.73a.674.674 0 0 1-.675-.676V2.918c0-.375.3-.676.675-.676zm0 0" fill="#212121"/><path d="M4.715 3.164L3.473 4.652h.746v1.985h.992V4.652h.742zm0 0M7.195 3.164L5.953 4.652H6.7v1.985h.992V4.652h.743zm0 0M3.723 7.133h4.464v.496H3.723zm0 0" fill-opacity=".235"/><path d="M2.73 2.172a.744.744 0 0 0-.746.746v1.238h19.848V2.918a.744.744 0 0 0-.746-.746zm0 0" fill="#414141" fill-opacity=".078"/></svg>
